packages/brickdoc-design-icons/assets/basic/block-level-link.svg

<svg width="1em" height="1em" viewBox="0 0 24 24" fill="none" xmlns="http://www.w3.org/2000/svg">
<path fill-rule="evenodd" clip-rule="evenodd" d="M17 5C17 4.44772 17.4477 4 18 4H22C22.5523 4 23 4.44772 23 5C23 5.55228 22.5523 6 22 6H18C17.4477 6 17 5.55228 17 5Z" fill="currentColor"/>
<path fill-rule="evenodd" clip-rule="evenodd" d="M17 12C17 11.4477 17.4477 11 18 11L22 11C22.5523 11 23 11.4477 23 12C23 12.5523 22.5523 13 22 13L18 13C17.4477 13 17 12.5523 17 12Z" fill="currentColor"/>
<path fill-rule="evenodd" clip-rule="evenodd" d="M17 19C17 18.4477 17.4477 18 18 18H22C22.5523 18 23 18.4477 23 19C23 19.5523 22.5523 20 22 20H18C17.4477 20 17 19.5523 17 19Z" fill="currentColor"/>
<path fill-rule="evenodd" clip-rule="evenodd" d="M1.25 12.8375C1.25 9.00992 4.39403 5.925 8.25 5.925C12.106 5.925 15.25 9.00992 15.25 12.8375C15.25 16.6651 12.106 19.75 8.25 19.75C4.39403 19.75 1.25 16.6651 1.25 12.8375ZM8.25 7.425C5.20244 7.425 2.75 9.85821 2.75 12.8375C2.75 15.8168 5.20244 18.25 8.25 18.25C11.2976 18.25 13.75 15.8168 13.75 12.8375C13.75 9.85821 11.2976 7.425 8.25 7.425Z" fill="currentColor"/>
<path fill-rule="evenodd" clip-rule="evenodd" d="M5.6618 4.5C5.6618 4.08579 5.99759 3.75 6.4118 3.75H10.0883C10.5025 3.75 10.8383 4.08579 10.8383 4.5C10.8383 4.91421 10.5025 5.25 10.0883 5.25H6.4118C5.99759 5.25 5.6618 4.91421 5.6618 4.5Z" fill="currentColor"/>
<path fill-rule="evenodd" clip-rule="evenodd" d="M8.25001 9.55C8.51752 9.55 8.76477 9.69249 8.89891 9.92394L10.3695 12.4614C10.5043 12.694 10.5043 12.981 10.3695 13.2136L8.89891 15.7511C8.76477 15.9825 8.51752 16.125 8.25001 16.125C7.9825 16.125 7.73524 15.9825 7.6011 15.7511L6.13052 13.2136C5.99572 12.981 5.99572 12.694 6.13052 12.4614L7.6011 9.92394C7.73524 9.69249 7.9825 9.55 8.25001 9.55ZM7.64627 12.8375L8.25001 13.8793L8.85375 12.8375L8.25001 11.7958L7.64627 12.8375Z" fill="currentColor"/>
<path fill-rule="evenodd" clip-rule="evenodd" d="M1.25 12.8375C1.25 12.4233 1.58579 12.0875 2 12.0875H3.47059C3.8848 12.0875 4.22059 12.4233 4.22059 12.8375C4.22059 13.2517 3.8848 13.5875 3.47059 13.5875H2C1.58579 13.5875 1.25 13.2517 1.25 12.8375Z" fill="currentColor"/>
<path fill-rule="evenodd" clip-rule="evenodd" d="M12.2794 12.8375C12.2794 12.4233 12.6152 12.0875 13.0294 12.0875H14.5C14.9142 12.0875 15.25 12.4233 15.25 12.8375C15.25 13.2517 14.9142 13.5875 14.5 13.5875H13.0294C12.6152 13.5875 12.2794 13.2517 12.2794 12.8375Z" fill="currentColor"/>
<path fill-rule="evenodd" clip-rule="evenodd" d="M8.25 5.925C8.66421 5.925 9 6.26079 9 6.675V8.125C9 8.53922 8.66421 8.875 8.25 8.875C7.83579 8.875 7.5 8.53922 7.5 8.125V6.675C7.5 6.26079 7.83579 5.925 8.25 5.925Z" fill="currentColor"/>
<path fill-rule="evenodd" clip-rule="evenodd" d="M8.25 16.8C8.66421 16.8 9 17.1358 9 17.55V19C9 19.4142 8.66421 19.75 8.25 19.75C7.83579 19.75 7.5 19.4142 7.5 19V17.55C7.5 17.1358 7.83579 16.8 8.25 16.8Z" fill="currentColor"/>
<path fill-rule="evenodd" clip-rule="evenodd" d="M5.16597 18.25C5.32256 17.8665 5.76037 17.6826 6.14384 17.8392C6.79138 18.1036 7.50231 18.25 8.25001 18.25C8.99771 18.25 9.70864 18.1036 10.3562 17.8392C10.7397 17.6826 11.1775 17.8665 11.3341 18.25C11.4906 18.6334 11.3067 19.0712 10.9233 19.2278C10.0984 19.5647 9.19511 19.75 8.25001 19.75C7.30492 19.75 6.40158 19.5647 5.57677 19.2278C5.1933 19.0712 5.00937 18.6334 5.16597 18.25Z" fill="currentColor"/>
<path fill-rule="evenodd" clip-rule="evenodd" d="M2.76356 9.78977C3.14546 9.95017 3.32501 10.3898 3.16461 10.7717C2.8976 11.4074 2.75 12.1046 2.75 12.8375C2.75 13.5704 2.8976 14.2676 3.16461 14.9033C3.32501 15.2852 3.14546 15.7248 2.76356 15.8852C2.38167 16.0456 1.94205 15.8661 1.78165 15.4842C1.4389 14.6682 1.25 13.7737 1.25 12.8375C1.25 11.9013 1.4389 11.0068 1.78165 10.1908C1.94205 9.80892 2.38167 9.62937 2.76356 9.78977Z" fill="currentColor"/>
<path fill-rule="evenodd" clip-rule="evenodd" d="M13.7364 9.78977C14.1183 9.62936 14.5579 9.80891 14.7183 10.1908C15.061 11.0068 15.2499 11.9013 15.2499 12.8375C15.2499 13.7737 15.061 14.6682 14.7183 15.4842C14.5579 15.8661 14.1183 16.0456 13.7364 15.8852C13.3545 15.7248 13.1749 15.2852 13.3353 14.9033C13.6023 14.2676 13.7499 13.5704 13.7499 12.8375C13.7499 12.1046 13.6023 11.4074 13.3353 10.7717C13.1749 10.3898 13.3545 9.95018 13.7364 9.78977Z" fill="currentColor"/>
<path fill-rule="evenodd" clip-rule="evenodd" d="M8.25008 7.425C7.44073 7.425 6.67428 7.59659 5.98459 7.90384C5.60623 8.0724 5.16286 7.90232 4.9943 7.52396C4.82573 7.14559 4.99582 6.70222 5.37418 6.53366C6.25266 6.1423 7.22679 5.925 8.25008 5.925C9.27338 5.925 10.2475 6.1423 11.126 6.53366C11.5044 6.70222 11.6744 7.14559 11.5059 7.52396C11.3373 7.90232 10.8939 8.0724 10.5156 7.90384C9.82589 7.59659 9.05944 7.425 8.25008 7.425Z" fill="currentColor"/>
</svg>

<svg  viewBox="0 0 24 24" width="1em" height="1em" fill="none" xmlns="http://www.w3.org/2000/svg"><path fill-rule="evenodd" clip-rule="evenodd" d="M17 5a1 1 0 0 1 1-1h4a1 1 0 1 1 0 2h-4a1 1 0 0 1-1-1ZM17 12a1 1 0 0 1 1-1h4a1 1 0 1 1 0 2h-4a1 1 0 0 1-1-1ZM17 19a1 1 0 0 1 1-1h4a1 1 0 1 1 0 2h-4a1 1 0 0 1-1-1ZM1.25 12.838c0-3.828 3.144-6.913 7-6.913s7 3.085 7 6.913c0 3.827-3.144 6.912-7 6.912s-7-3.085-7-6.912Zm7-5.413c-3.048 0-5.5 2.433-5.5 5.413 0 2.979 2.452 5.412 5.5 5.412s5.5-2.433 5.5-5.412c0-2.98-2.452-5.413-5.5-5.413ZM5.662 4.5a.75.75 0 0 1 .75-.75h3.676a.75.75 0 0 1 0 1.5H6.412a.75.75 0 0 1-.75-.75Z" fill="#34313c"/><path fill-rule="evenodd" clip-rule="evenodd" d="M8.25 9.55a.75.75 0 0 1 .649.374l1.47 2.537a.75.75 0 0 1 0 .753L8.9 15.75a.75.75 0 0 1-1.298 0l-1.47-2.537a.75.75 0 0 1 0-.753L7.6 9.924a.75.75 0 0 1 .649-.374Zm-.604 3.287.604 1.042.604-1.041-.604-1.042-.604 1.042ZM1.25 12.838a.75.75 0 0 1 .75-.75h1.47a.75.75 0 0 1 0 1.5H2a.75.75 0 0 1-.75-.75ZM12.28 12.838a.75.75 0 0 1 .75-.75h1.47a.75.75 0 0 1 0 1.5h-1.47a.75.75 0 0 1-.75-.75ZM8.25 5.925a.75.75 0 0 1 .75.75v1.45a.75.75 0 1 1-1.5 0v-1.45a.75.75 0 0 1 .75-.75ZM8.25 16.8a.75.75 0 0 1 .75.75V19a.75.75 0 0 1-1.5 0v-1.45a.75.75 0 0 1 .75-.75Z" fill="#34313c"/><path fill-rule="evenodd" clip-rule="evenodd" d="M5.166 18.25a.75.75 0 0 1 .978-.41c.647.264 1.358.41 2.106.41.748 0 1.459-.146 2.106-.41a.75.75 0 1 1 .567 1.388 7.057 7.057 0 0 1-2.673.522 7.056 7.056 0 0 1-2.673-.522.75.75 0 0 1-.411-.978ZM2.764 9.79c.381.16.561.6.4.982a5.32 5.32 0 0 0-.414 2.066c0 .732.148 1.43.415 2.065a.75.75 0 0 1-1.383.581 6.82 6.82 0 0 1-.532-2.646c0-.937.189-1.831.532-2.647a.75.75 0 0 1 .982-.401ZM13.736 9.79a.75.75 0 0 1 .982.4 6.82 6.82 0 0 1 .532 2.648 6.82 6.82 0 0 1-.532 2.646.75.75 0 1 1-1.383-.58 5.32 5.32 0 0 0 .415-2.066 5.32 5.32 0 0 0-.415-2.066.75.75 0 0 1 .401-.982ZM8.25 7.425c-.81 0-1.576.172-2.265.479a.75.75 0 0 1-.61-1.37 7.052 7.052 0 0 1 2.875-.609c1.023 0 1.998.217 2.876.609a.75.75 0 0 1-.61 1.37 5.553 5.553 0 0 0-2.266-.479Z" fill="#34313c"/></svg>
